src/assets/images/free-demat-compaign/clock.svg

<svg width="75" height="87" viewBox="0 0 75 87" fill="none" xmlns="http://www.w3.org/2000/svg">
<g clip-path="url(#clip0_258_391)">
<path d="M35.1066 87C33.6148 86.7851 32.123 86.6418 30.6312 86.3552C20.3328 84.373 12.2 79.0475 6.32897 70.4263C1.32415 63.0947 -0.69702 54.9273 0.217321 46.1389C1.17978 36.6341 5.29432 28.6099 12.4166 22.162C17.6139 17.4812 23.6533 14.5199 30.559 13.2303C30.6793 13.2303 30.7756 13.1825 30.8959 13.1587C31.0884 13.1109 31.2808 13.0631 31.5455 12.9915V7.451C29.4762 7.451 27.431 7.451 25.3858 7.451C25.0008 7.451 24.5677 7.42712 24.2067 7.28383C23.533 7.04502 23.2443 6.49575 23.2443 5.82707C23.2443 4.44194 23.1961 3.05682 23.2443 1.6717C23.2683 0.549273 23.8699 0 25.0489 0C27.4791 0 29.9093 0 32.3155 0C37.7294 0 43.1673 0 48.5811 0C50.2414 0 50.7467 0.477628 50.7467 2.10156C50.7467 3.22399 50.7467 4.3703 50.7467 5.49273C50.7467 6.90173 50.1933 7.451 48.7736 7.451C47.0171 7.451 45.2606 7.451 43.456 7.451V12.9437C45.2366 13.3975 47.0412 13.7796 48.7736 14.305C55.6071 16.4304 61.3578 20.2276 66.0258 25.6248C70.3809 30.6637 73.148 36.4908 74.3992 43.0343C78.1288 62.3544 65.4242 81.6506 46.1509 85.9731C44.3222 86.3791 42.4454 86.5701 40.5927 86.8567C40.3761 86.8806 40.1596 86.9522 39.943 87H35.1548H35.1066ZM70.3006 49.8166C70.1803 33.3623 54.5484 17.3237 37.5609 17.276C21.0787 17.2282 4.82124 32.7892 4.74906 49.7211C4.67687 66.2232 20.5253 82.2857 37.5128 82.3096C54.1875 82.3096 70.1322 66.5575 70.3006 49.8166Z" fill="#797979" fill-opacity="0.3"/>
<path d="M4.59599 25.577C1.68453 22.4963 1.85296 17.6961 4.93285 14.7587C7.98867 11.869 12.8732 12.0123 15.9049 15.1886C12.1273 18.6514 8.34959 22.1142 4.57192 25.577H4.59599Z" fill="#797979" fill-opacity="0.3"/>
<path d="M65.6354 46.3652V52.6704H57.0527V46.3652H65.6354Z" fill="#797979" fill-opacity="0.3"/>
<path d="M52.228 25.9057C48.4423 31.9277 41.4154 43.1483 36.4629 50.3027V21.4535C38.7447 21.299 46.3939 22.0454 52.228 25.9057Z" fill="#FFCE02"/>
<path d="M17.9244 46.3652V52.6704H9.3418V46.3652H17.9244Z" fill="#797979" fill-opacity="0.3"/>
<path d="M36.4121 78.1739V69.707H41.5202V78.1739H36.4121Z" fill="#797979" fill-opacity="0.3"/>
<path d="M13.8531 65.0491C13.4123 64.277 12.9974 63.5822 12.5566 62.8101C14.4495 61.7292 16.2905 60.6741 18.2352 59.5417C18.6501 60.2623 19.0649 60.9572 19.5317 61.7807C17.6388 62.8616 15.7978 63.9167 13.8531 65.0491Z" fill="#797979" fill-opacity="0.3"/>
<path d="M12.5566 36.1997C12.9974 35.4276 13.4123 34.7328 13.8531 33.9607C15.7719 35.0673 17.6129 36.1225 19.5317 37.2291C19.0909 37.9754 18.7019 38.6702 18.2352 39.468C16.3164 38.3614 14.4495 37.3063 12.5566 36.1997Z" fill="#797979" fill-opacity="0.3"/>
<path d="M25.9356 68.0858C26.6876 68.5233 27.3877 68.935 28.1915 69.3725C27.0765 71.2769 26.0134 73.1041 24.8984 75.0085C24.1206 74.571 23.4205 74.1593 22.6426 73.7218C23.7575 71.8174 24.8206 69.9902 25.9356 68.1115V68.0858Z" fill="#797979" fill-opacity="0.3"/>
<path d="M22.6426 25.3138C23.4205 24.8506 24.1206 24.4646 24.8984 24.0013C26.0134 25.88 27.0765 27.7072 28.2174 29.6116C27.4654 30.0491 26.7654 30.4609 25.9615 30.9241C24.8466 29.0455 23.7835 27.2182 22.6426 25.2881V25.3138Z" fill="#797979" fill-opacity="0.3"/>
<path d="M50.7514 68.06C51.8405 69.9129 52.8776 71.6629 53.9667 73.5159C53.2406 74.0048 52.5665 74.4681 51.8145 74.9828C50.6996 73.0784 49.6364 71.2769 48.5215 69.3982C49.2734 68.9607 49.9735 68.549 50.7514 68.0857V68.06Z" fill="#797979" fill-opacity="0.3"/>
<path d="M58.4248 59.5417C60.0065 60.4425 61.4845 61.2917 63.0403 62.1925C62.6513 62.9645 62.2883 63.6851 61.8994 64.5087C60.3177 63.6079 58.7878 62.7329 57.1543 61.8065C57.5692 61.0601 57.984 60.3653 58.4508 59.5675L58.4248 59.5417Z" fill="#797979" fill-opacity="0.3"/>
<path d="M61.0203 34.5527C61.4611 35.3248 61.876 36.0196 62.3168 36.7917C60.424 37.8726 58.583 38.9277 56.6383 40.0601C56.2234 39.3395 55.8085 38.6446 55.3418 37.8211C57.2346 36.7402 59.0756 35.6851 61.0203 34.5527Z" fill="#797979" fill-opacity="0.3"/>
</g>
<defs>
<clipPath id="clip0_258_391">
<rect width="75" height="87" fill="white"/>
</clipPath>
</defs>
</svg>

<svg width="75" height="87" fill="none" xmlns="http://www.w3.org/2000/svg"><g clip-path="url(#a)"><path d="M35.107 87c-1.492-.215-2.984-.358-4.476-.645C20.333 84.373 12.2 79.047 6.33 70.426 1.324 63.095-.697 54.927.217 46.14c.963-9.505 5.077-17.53 12.2-23.977 5.197-4.68 11.236-7.642 18.142-8.932.12 0 .217-.048.337-.071.192-.048.385-.096.65-.168v-5.54h-6.16c-.385 0-.818-.024-1.18-.167-.673-.239-.962-.788-.962-1.457 0-1.385-.048-2.77 0-4.155C23.268.549 23.87 0 25.05 0H48.58c1.66 0 2.166.478 2.166 2.102v3.39c0 1.41-.554 1.959-1.973 1.959h-5.318v5.493c1.78.454 3.585.836 5.318 1.361 6.833 2.125 12.584 5.923 17.252 11.32 4.355 5.039 7.122 10.866 8.373 17.41 3.73 19.32-8.975 38.616-28.248 42.938-1.829.406-3.706.597-5.558.884-.217.024-.433.095-.65.143h-4.836zM70.3 49.817c-.12-16.455-15.753-32.493-32.74-32.541-16.482-.048-32.74 15.513-32.812 32.445-.072 16.502 15.776 32.565 32.764 32.589 16.675 0 32.62-15.752 32.788-32.493z" fill="#797979" fill-opacity=".3"/><path d="M4.596 25.577c-2.911-3.08-2.743-7.88.337-10.818 3.056-2.89 7.94-2.747 10.972.43L4.572 25.577h.024zM65.635 46.365v6.305h-8.582v-6.305h8.582z" fill="#797979" fill-opacity=".3"/><path d="M52.228 25.906c-3.786 6.022-10.813 17.242-15.765 24.397v-28.85c2.282-.154 9.93.592 15.765 4.453z" fill="#FFCE02"/><path d="M17.924 46.365v6.305H9.342v-6.305h8.582zM36.412 78.174v-8.467h5.108v8.467h-5.108zM13.853 65.05c-.44-.773-.856-1.468-1.296-2.24a761.31 761.31 0 0 0 5.678-3.268c.415.72.83 1.415 1.297 2.239a761.31 761.31 0 0 0-5.679 3.268zM12.557 36.2c.44-.772.855-1.467 1.296-2.24 1.919 1.107 3.76 2.163 5.679 3.27-.441.745-.83 1.44-1.297 2.238-1.919-1.107-3.785-2.162-5.678-3.268zM25.936 68.086c.752.437 1.452.849 2.256 1.287-1.116 1.904-2.179 3.731-3.294 5.635-.777-.437-1.477-.849-2.255-1.286 1.114-1.905 2.178-3.732 3.293-5.61v-.026zM22.643 25.314c.777-.463 1.478-.85 2.255-1.313 1.115 1.879 2.178 3.706 3.32 5.61-.753.438-1.453.85-2.256 1.313-1.115-1.878-2.178-3.706-3.32-5.636v.026zM50.751 68.06c1.09 1.853 2.127 3.603 3.216 5.456-.726.489-1.4.952-2.152 1.467a1073.287 1073.287 0 0 0-3.293-5.585c.751-.437 1.452-.849 2.23-1.312v-.026zM58.425 59.542c1.582.9 3.06 1.75 4.615 2.65a97.064 97.064 0 0 0-1.14 2.317c-1.582-.901-3.112-1.776-4.746-2.703.415-.746.83-1.44 1.297-2.238l-.026-.026zM61.02 34.553c.441.772.856 1.467 1.297 2.239a763.338 763.338 0 0 0-5.679 3.268c-.415-.72-.83-1.415-1.296-2.239a763.338 763.338 0 0 0 5.678-3.268z" fill="#797979" fill-opacity=".3"/></g><defs><clipPath id="a"><path fill="#fff" d="M0 0h75v87H0z"/></clipPath></defs></svg>
